!!!!SEGMENT: pl-wn--mus-iii-71-038-cim_katski-apolinary--diabel-mazur-op-9.krn
!!!cenid: 18xx:3626
!!!COM: Kątski, Apolinary
!!!COM-rismID: pe30020040
!!!CDT: 1825-1879
!!!CNT: Polish
!!!OTL: Diabeł mazur op. 9
!!!PDT:
!!!AGN:
!!!SMS-siglum: PL-Wn
!!!SMS-shelfmark: Mus.III.71.038 Cim.
!!!SMS-shelfwork: W
!!!SMS-variant:
!!!SMS-altvar:
!!!NIFC-rismSourceID:
!!!NIFC-rismChildID:
!!!NIFC-islandoraID: none
!!!URL-pdf-islandora:
!!!URL-scan: https://polona.pl/item/diabel-mazur-dz-9,MzQxNTcwNTg/2 @EN{Scan on Polona} @PL{Skany w portalu Polona}
!!!ONB-nifc:
!!!AIN: 1 piano
!!!key: G
**kern	**kern	**dynam
*part1	*part1	*part1
*staff2	*staff1	*
*I"Fortepian	*I"Fortepian	*
*I'pf	*I'pf	*
*Ipiano	*Ipiano	*
*ICklav	*ICklav	*
*clefF4	*clefG2	*
*k[f#]	*k[f#]	*
*G:	*G:	*
*M3/4	*M3/4	*
*>[A,B,B1,B,B2]	*>[A,B,B1,B,B2]	*
=1	=1	=1
*>A	*>A	*
!!!OMD: Allegro.
*tremolo	*	*
!	!LO:TX:a:B:t=Introduction.	!
(<32DD/LLL	4ddd 4ff# 4dd\	sf
32D/	.	.
32DD/	.	.
32D/	.	.
32DD/	.	.
32D/	.	.
32DD/	.	.
32D/	.	.
32DD/	4r	.
32D/	.	.
32DD/	.	.
32D/	.	.
32DD/	.	.
32D/	.	.
32DD/	.	.
32D/	.	.
32DD/	4r	.
32D/	.	.
32DD/	.	.
32D/	.	.
32DD/	.	.
32D/	.	.
32DD/	.	.
32D/JJJ)	.	.
=2	=2	=2
(<32DD/LLL	8.ddL 8.a 8.f# 8.d/	.
32D/	.	.
32DD/	.	.
32D/	.	.
32DD/	.	.
32D/	.	.
32DD/	16ddJk 16a 16f# 16d/	.
32D/	.	.
32DD/	4dd 4a 4f# 4d/	.
32D/	.	.
32DD/	.	.
32D/	.	.
32DD/	.	.
32D/	.	.
32DD/	.	.
32D/	.	.
32DD/	4dd 4a 4f# 4d^</	.
32D/	.	.
32DD/	.	.
32D/	.	.
32DD/	.	.
32D/	.	.
32DD/	.	.
32D/JJJ)	.	.
=3	=3	=3
(<32DD/LLL	2.ee 2.a 2.g 2.e^</	.
32C#X/	.	.
32DD/	.	.
32C#/	.	.
32DD/	.	.
32C#/	.	.
32DD/	.	.
32C#/	.	.
32DD/	.	.
32C#/	.	.
32DD/	.	.
32C#/	.	.
32DD/	.	.
32C#/	.	.
32DD/	.	.
32C#/	.	.
32DD/	.	.
32C#/	.	.
32DD/	.	.
32C#/	.	.
32DD/	.	.
32C#/	.	.
32DD/	.	.
32C#X/JJJ)	.	.
=4	=4	=4
(<32DD/LLL	8.eeL 8.a 8.g 8.e/	.
32C#X/	.	.
32DD/	.	.
32C#/	.	.
32DD/	.	.
32C#/	.	.
32DD/	16eeJk 16a 16g 16e/	.
32C#/	.	.
32DD/	4ee 4a 4g 4e/	.
32C#/	.	.
32DD/	.	.
32C#/	.	.
32DD/	.	.
32C#/	.	.
32DD/	.	.
32C#/	.	.
32DD/	4ee 4a 4g 4e^/<	.
32C#/	.	.
32DD/	.	.
32C#/	.	.
32DD/	.	.
32C#/	.	.
32DD/	.	.
32C#X/JJJ)	.	.
!!LO:LB:g=original
=5	=5	=5
(<32DD/LLL	2.ff# 2.a 2.f#\	.
32Cn/	.	.
32DD/	.	.
32C/	.	.
32DD/	.	.
32C/	.	.
32DD/	.	.
32C/	.	.
32DD/	.	.
32C/	.	.
32DD/	.	.
32C/	.	.
32DD/	.	.
32C/	.	.
32DD/	.	.
32C/	.	.
32DD/	.	.
32C/	.	.
32DD/	.	.
32C/	.	.
32DD/	.	.
32C/	.	.
32DD/	.	.
32CnX/JJJ)	.	.
=6	=6	=6
(<32DD/LLL	8.ff#L 8.a 8.f#\	.
32C/	.	.
32DD/	.	.
32C/	.	.
32DD/	.	.
32C/	.	.
32DD/	16ff#Jk 16a 16f#\	.
32C/	.	.
32DD/	4ff# 4a 4f#\	.
32C/	.	.
32DD/	.	.
32C/	.	.
32DD/	.	.
32C/	.	.
32DD/	.	.
32C/	.	.
32DD/	4ff# 4a 4f#^>\	.
32C/	.	.
32DD/	.	.
32C/	.	.
32DD/	.	.
32C/	.	.
32DD/	.	.
32C/JJJ)	.	.
=7	=7	=7
8.BBL 8.DD/	8.ggL 8.b 8.g\	.
16DJk 16BB 16DD/	16ggJk 16b 16g\	.
4D 4BB 4DD/	4gg 4b 4g\	.
4D 4AA 4DD^</	4aa 4dd 4a^>\	.
=8	=8	=8
8.DL 8.GG 8.DD/	8.bbL 8.dd 8.b\	.
16DJk 16GG 16DD/	16bbJk 16dd 16b\	.
4D 4GG 4DD/	4bb 4dd 4b\	.
4D 4GG 4DD^</	4ccc#X 4aa 4cc#X^>\	.
!!LO:LB:g=original
=9	=9	=9
4D 4FF# 4DD/	8.dddL 8.aa 8.dd\	sf
.	16dd\Jk	.
4r	4dd\	.
4r	4dd^>\	.
=10	=10	=10
2.r	8.dd\L	.
.	16dd\Jk	.
.	4dd\	.
.	4dd^>\	.
=11	=11	=11
2.r	8.dd/L	.
.	16d/Jk	.
.	4d/	.
.	4d/	.
=12	=12	=12
2.r	8.d/L	.
.	16d/Jk	.
.	4d/	.
.	4d/	.
!!LO:PB:g=original
=13||	=13||	=13||
*	*^	*
!	!LO:TX:a:i:t=risoluto	!	!
!	!LO:TX:a:B:t=Mazur.	!	!
4G 4D 4GG/	(>16d/KL	4B\	f
.	8.g/J)	.	.
.	(<8qg/	.	.
2c 2A 2D^>\	(>8f#^>/L)	2d\	.
.	8e/	.	.
.	8f#/	.	.
.	8d/J)	.	.
=14	=14	=14	=14
4G 4D 4GG/	(>16d/KL	4B\	.
.	8.g/J)	.	.
.	(<8qg/	.	.
2c 2A 2D^>\	(>8f#^>/L)	2d\	.
.	8e/	.	.
.	8f#/	.	.
.	8d/J)	.	.
=15	=15	=15	=15
(>4G\	(>8.d/L	4B\	p <
.	16g/Jk)	.	.
4GG/	4b/	4r	.
4C/	8cc^>/L	4g 4e\	.
.	8b/J	.	.
=16	=16	=16	=16
4D\)	(>8.g#X/L	4f# 4c\	.
.	[<16a/Jk	.	[
2c 2A 2D^>\	4ee^>/	2a] 2f#\	.
.	4ee/)	.	.
!!LO:LB:g=original
=17	=17	=17	=17
4G 4D 4GG/	(<16d/KL	4B\	f
.	8.g/J)	.	.
.	(8qg/	.	.
2c 2A 2D^>\	(>8f#^>/L)	2d\	.
.	8e/	.	.
.	8f#/	.	.
.	8d/J)	.	.
=18	=18	=18	=18
4G 4D 4GG/	(>16d/KL	4B\	.
.	8.g/J)	.	.
.	(<8qg/	.	.
2c 2A 2D^>\	(>8f#^>/L)	2d\	.
.	8e/	.	.
.	8f#/	.	.
.	8d/J)	.	.
=19	=19	=19	=19
(>4G\	(>8.d/L	4B\	p <
.	16g/Jk)	.	.
4GG/	4b/	4r	.
4C/)	8cc/L	4g 4e\	.
.	8b/J	.	[[
=20	=20	=20	=20
!	!	!	!LO:HP:a
4D\	(>8.b/L	4f# 4c\	f >
.	16a/Jk)	.	.
4G 4GG/	4g/	4B\	] sf
4r	4r	4ryy	.
!!LO:LB:g=original
=21	=21	=21	=21
4G 4D 4GG/	(>16d/KL	4B\	f
.	8.g/J)	.	.
.	(<8qg/	.	.
2c 2A 2D^>\	(>8f#^>/L)	2d\	.
.	8e/	.	.
.	8f#/	.	.
.	8d/J)	.	.
=22	=22	=22	=22
4G 4D 4GG/	(>16d/KL	4B\	.
.	8.g/J)	.	.
.	(<8qg/	.	.
2c 2A 2D^>\	(>8f#^>/L)	2d\	.
.	8e/	.	.
.	8f#/	.	.
.	8d/J)	.	.
=23	=23	=23	=23
(>4G\	(>8.d/L	4B\	p <
.	16g/Jk)	.	.
4GG/	4b/	4r	.
4C/	8cc^>/L	4g 4e\	.
.	8b/J	.	.
=24	=24	=24	=24
4D\)	(>8.g#X/L	4f# 4c\	[
.	[<16a/Jk	.	.
2c 2A 2D^>\	4ee^>/	2a] 2f#\	.
.	4ee/)	.	.
!!LO:LB:g=original
=25	=25	=25	=25
4G 4D 4GG/	(>16d/KL	4B\	f
.	8.g/J)	.	.
.	(<8qg/	.	.
2c 2A 2D^>\	(>8f#^>/L)	2d\	.
.	8e/	.	.
.	8f#/	.	.
.	8d/J)	.	.
=26	=26	=26	=26
4G 4D 4GG/	(>16d/KL	4B\	.
.	8.g/J)	.	.
.	(<8qg/	.	.
2c 2A 2D^>\	(>8f#^>/L)	2d\	.
.	8e/	.	.
.	8f#/	.	.
.	8d/J)	.	.
=27	=27	=27	=27
(>4G\	(>8.d/L	4B\	p <
.	16g/Jk)	.	.
4GG/	4b/	4r	.
4C/)	(>8cc/L	4g 4e\	.
.	8b/J)	.	[[
=28	=28	=28	=28
4D/	(>8.b/L	4f# 4c\	f
.	16a/Jk)	.	.
4G 4GG/	4g/	4B\	sf
4r	4r	4ryy	.
*	*v	*v	*
!!LO:PB:g=original
=29||	=29||	=29||
*>B	*>B	*
*k[]	*k[]	*
!	!LO:TX:a:i:t=più lento	!
!	!LO:TX:a:t=[segno]:rj	!
!	!LO:TX:b:i:t=dolce	!LO:DY:b=2
.	(<8qf/	p
4GG 4GGG/	8ee 8b'\)	.
.	8r	.
4B 4BB\	2dd 2g 2f^>\	.
4G 4GG/	.	.
=30	=30	=30
.	(<8qe/	.
4C 4CC/	8dd 8g'\)	.
.	8r	.
4E 4EE/	2cc 2g 2c^>/	.
4C 4CC/	.	.
=31	=31	=31
*	*^	*
!	!	!	!LO:HP:a
4G 4GG/	(>4.b/	2f 2B\	>
2GG 2GGG^</	.	.	.
.	8a/	.	.
.	8g/L	4r	.
.	8f/J)	.	]
*	*v	*v	*
=32	=32	=32
*	*	*^
!	!	!LO:HP:a	!
4C 4CC/	8.eL 8.c/	<	.
.	16g/Jk	.	.
!	!	!LO:HP:a	!
(>4c\	4ff [>4cc 4a\	[ >	>
4C/)	4ee 4cc] 4g\	]]	]]
*	*	*v	*v
!!LO:LB:g=original
=33	=33	=33
.	(<8qf/	.
4GG/	8ee 8b'\)	.
.	8r	.
4B 4BB\	2dd 2g 2f^>\	.
4G 4GG/	.	.
=34	=34	=34
.	(<8qe/	.
4C 4CC/	8dd 8g'\)	.
.	8r	.
4E 4EE/	2cc 2g 2c^>/	.
4C 4CC/	.	.
=35	=35	=35
*	*^	*
!	!	!	!LO:HP:a
4G 4GG/	(>4.b/	2f 2B\	>
2GG 2GGG^</	.	.	.
.	8a/	.	.
.	8g/L	4r	.
.	8f/J)	.	]
=36	=36	=36	=36
4E 4GG 4CC/	4c/	4c\	.
4CC 4CCC/	4cc 4g 4e 4c/	2ryy	sf
4r	4r	.	.
*	*v	*v	*
!!LO:LB:g=original
=37	=37	=37
.	(<8qf/	.
4GG 4GGG/	8ee 8b'\)	.
.	8r	.
4B 4BB\	2dd 2g 2f^>\	.
4G 4GG/	.	.
=38	=38	=38
.	(<8qe/	.
4C 4CC/	8dd 8g'\)	.
.	8r	.
4E 4EE/	2cc 2g 2c^>/	.
4C 4CC/	.	.
=39	=39	=39
*	*^	*
!	!	!	!LO:HP:a
4G 4GG/	(>4.b/	2f 2B\	>
2GG 2GGG^</	.	.	.
.	8a/	.	.
.	8g/L	4r	.
.	8f/J)	.	]
*	*v	*v	*
=40	=40	=40
*	*	*^
!	!	!LO:HP:a	!
4C 4CC/	8.eL 8.c/	<	.
.	16g/Jk	.	.
!	!	!LO:HP:a	!
(>4c\	4ff [>4cc 4a\	[ >	>
4C/)	4ee 4cc] 4g\	]]	]]
*	*	*v	*v
!!LO:LB:g=original
=41	=41	=41
.	(<8qf/	.
4GG/	8ee 8b'\)	.
.	8r	.
4B 4BB\	2dd 2g 2f^>\	.
4G 4GG/	.	.
=42	=42	=42
.	(<8qe/	.
4C 4CC/	8dd 8g'\)	.
.	8r	.
4E 4EE/	2cc 2g 2c^>/	.
4C 4CC/	.	.
=43	=43	=43
*	*^	*
!	!	!	!LO:HP:a
4G 4GG/	(>4.b/	2f 2B\	>
2GG 2GGG^</	.	.	.
.	8a/	.	.
.	8g/L	4r	.
.	8f/J)	.	]
=44	=44	=44	=44
4E 4GG 4CC/	4c/	4c\	.
4CC 4CCC/	4cc 4g 4e 4c/	2ryy	sf
4r	4r	.	.
*	*v	*v	*
!!LO:PB:g=original
=45||	=45||	=45||
*k[f#]	*k[f#]	*
*	*^	*
!	!LO:TX:a:i:t=risoluto	!	!
4G 4D 4GG/	(>16d/KL	4B\	f
.	8.g/J)	.	.
.	(<8qg/	.	.
2c 2A 2D^>\	(>8f#^>/L)	2d\	.
.	8e/	.	.
.	8f#/	.	.
.	8d/J)	.	.
=46	=46	=46	=46
4G 4D 4GG/	(>16d/KL	4B\	f
.	8.g/J)	.	.
.	(<8qg/	.	.
2c 2A 2D^>\	(>8f#^>/L)	2d\	.
.	8e/	.	.
.	8f#/	.	.
.	8d/J)	.	.
=47	=47	=47	=47
(>4G\	(>8.d/L	4B\	p
.	16g/Jk)	.	.
4GG/	4b/	4r	.
4C/	8cc^>/L	4g 4e\	.
.	8b/J	.	.
!!LO:LB:g=original
=48	=48	=48	=48
4D\)	(>8.g#X/L	4f# 4c\	<
.	[<16a/Jk	.	.
2c 2A 2D\	4ee^>/	2a] 2f#\	[ >
.	4ee/)	.	.
=49	=49	=49	=49
4G 4D 4GG/	(>16d/KL	4B\	] f
.	8.g/J)	.	.
.	(<8qg/	.	.
2c 2A 2D^>\	(>8f#^>/L)	2d\	.
.	8e/	.	.
.	8f#/	.	.
.	8d/J)	.	.
=50	=50	=50	=50
4G 4D 4GG/	(>16d/KL	4B\	.
.	8.g/J)	.	.
.	(<8qg/	.	.
2c 2A 2D^>\	(>8f#^>/L)	2d\	.
.	8e/	.	.
.	8f#/	.	.
.	8d/J)	.	.
!!LO:LB:g=original
=51	=51	=51	=51
(>4G\	(>8.d/L	4B\	p <
.	16g/Jk)	.	.
4GG/	4b/	4r	.
4C/)	(>8cc/L	4g 4e\	.
.	8b/J)	.	[[
=52	=52	=52	=52
4D\	(>8.b/L	4f# 4c\	f
.	16a/Jk)	.	.
4G 4GG\	4g/	4B\	sf
4r	4r	4ryy	.
=53	=53	=53	=53
4G 4D 4GG/	(>16d/KL	4B\	f
.	8.g/J)	.	.
.	(<8qg/	.	.
2c 2A 2D^>\	(>8f#^>/L)	2d\	.
.	8e/	.	.
.	8f#/	.	.
.	8d/J)	.	.
!!LO:LB:g=original
=54	=54	=54	=54
4G 4D 4GG/	(>16d/KL	4B\	.
.	8.g/J)	.	.
.	(<8qg/	.	.
2c 2A 2D^>\	(>8f#^>/L)	2d\	.
.	8e/	.	.
.	8f#/	.	.
.	8d/J)	.	.
=55	=55	=55	=55
(>4G\	(>8.d/L	4B\	p <
.	16g/Jk)	.	.
4GG/	4b/	4r	.
4C/	8cc^>/L	4g 4e\	.
.	8b/J	.	.
=56	=56	=56	=56
4D\)	(>8.g#X/L	4f# 4c\	[
.	[<16a/Jk	.	.
.	.	.	>
2c 2A 2D\	4ee^>/	2a] 2f#\	.
.	4ee/)	.	]]
!!LO:PB:g=original
=57	=57	=57	=57
4G 4D 4GG/	(>16d/KL	4B\	f
.	8.g/J)	.	.
.	(<8qg/	.	.
2c 2A 2D^>\	(>8f#^>/L)	2d\	.
.	8e/	.	.
.	8f#/	.	.
.	8d/J)	.	.
=58	=58	=58	=58
4G 4D 4GG/	(>16d/KL	4B\	.
.	8.g/J)	.	.
.	(<8qg/	.	.
2c 2A 2D^>\	(>8f#^>/L)	2d\	.
.	8e/	.	.
.	8f#/	.	.
.	8d/J)	.	.
=59	=59	=59	=59
(>4G\	(>8.d/L	4B\	p <
.	16g/Jk)	.	.
4GG/	4b/	4r	.
4C/)	(>8cc/L	4g 4e\	.
.	8b/J)	.	[[
!!LO:LB:g=original
=60	=60	=60	=60
4D 4DD/	(>8.b^>/L	4f# 4c\	f
.	16a/Jk)	.	.
4GG 4GGG/	4g/	4d 4B\	sf
4r	(>8g/L	4r	p
.	8a/J)	.	.
=61	=61	=61	=61
*^	*	*	*
*	*^	*	*	*
!	!	!	!LO:TX:a:i:t=con molta espressione	!	!LO:HP:a
4r	2.E 2.EE\	4ryy	4.b/	4r	<
(>4e^>/	.	2G\	.	4g\	.
.	.	.	(>8gg/	.	[
4B/)	.	.	8ff#/L	4b\	.
.	.	.	8ee/J)	.	.
=62	=62	=62	=62	=62	=62
4r	2.E 2.EE\	4ryy	8.dd#X/L	4r	.
.	.	.	(>16a/Jk	.	.
!	!	!	!	!	!LO:HP:a
2d#X^>/	.	(<4A\	4cc/	2f#\	>
.	.	4B\)	4b/)	.	]
!!LO:LB:g=original
=63	=63	=63	=63	=63	=63
4r	2.E 2.EE\	4ryy	8.e#X/L	4r	.
.	.	.	(>[<16f#/Jk	.	.
!	!	!	!	!	!LO:HP:a
2d#X^>/	.	(<4A\	4.b/)	2f#\]	>
.	.	4B\)	.	.	.
.	.	.	8a/	.	]
=64	=64	=64	=64	=64	=64
.	.	.	(<16qqg/LL	.	.
.	.	.	16qqa/JJ	.	.
4r	2.E 2.EE\	4ryy	(>8g/L)	4r	.
.	.	.	8f#/J	.	.
(>4e^>/	.	2G\	8e/L)	4r	.
.	.	.	(>8f#/	.	.
4B/)	.	.	8g/	8e\L	.
.	.	.	8a/J	8f#\J	.
=65	=65	=65	=65	=65	=65
!	!	!	!	!	!LO:HP:a
4r	2.E 2.EE\	4ryy	4.b/)	4r	<
(>4e^>/	.	2G\	.	4g\	.
.	.	.	(>8gg/	.	[
4B/)	.	.	8ff#/L	4b\	.
.	.	.	8ee/J)	.	.
!!LO:LB:g=original
=66	=66	=66	=66	=66	=66
4r	2.E 2.EE\	4ryy	8.dd#X/L	4r	.
.	.	.	(>16a/Jk	.	.
2d#X^>/	.	(<4A\	4cc/	2f#\	.
.	.	4B\)	4b/)	.	.
=67	=67	=67	=67	=67	=67
4r	2.E 2.EE\	4ryy	(>8.e#X/L	4ryy	.
.	.	.	[<16f#/Jk	.	.
2d#X^>/	.	(<4A\	4.b/)	2f#\]	.
.	.	4B\)	.	.	.
.	.	.	(<8d#X/	.	.
*	*v	*v	*	*	*
*	*	*v	*v	*
=68	=68	=68	=68
4r	2.E 2.EE\	4e/)	.
4e 4B 4G/	.	4r	.
4rB	.	(<8g/L	.
.	.	8a/J)	.
!!LO:PB:g=original
=69	=69	=69	=69
*	*	*^	*
!	!	!LO:TX:b:t=m.d.	!	!
2.E 2.EE\	4.ryy	4rgg	4.b\	.
.	.	4rgg	.	.
!LO:TX:b:t=m.g.	!	!	!	!
.	(<8gg>\L	.	8g 8e 8B\	.
.	.	(>8qbb/	.	.
.	8ff#> 8b> 8g>\	4bbb/)	4ryy	.
.	8ee>\J)	.	.	.
=70	=70	=70	=70	=70
!	!	!LO:TX:b:t=m.d.	!	!
2.E 2.EE\	4ryy	4rddd	8.dd#X/L	.
.	.	.	16a/Jk 16f#/ 16d#X/	.
!LO:TX:b:t=m.g.	!	!	!	!
.	4cc>\	4rgg	2ryy	.
.	.	(>8qbb/	.	.
.	8b>\	4bbb/)	.	.
.	8r>	.	.	.
=71	=71	=71	=71	=71
!	!	!LO:TX:b:t=m.d.	!	!
2.E 2.EE\	4ryy	4rgg	8.e#X/L	.
.	.	.	16f#Jk 16d#X 16B 16A/	.
!LO:TX:b:t=m.g.	!LO:N:vis=4.	!	!	!
.	4b>\	4rgg	2ryy	.
.	.	(>8qbb/	.	.
.	8f#> 8d> 8B>\	4bbb/)	.	.
.	8a>\	.	.	.
!!LO:LB:g=original
=72	=72	=72	=72	=72
.	.	.	(<16qqg/LL	.
.	.	.	16qqa/JJ	.
2.E 2.EE\	4.ryy	4rgg	8g/L)	.
.	.	.	8f#/	.
.	.	4rgg	8eJ 8B 8G/	.
.	8f#>\L	.	4.ryy	.
.	.	(>8qbb/	.	.
.	8g> 8e> 8B>\	4bbb\)	.	.
.	8a>\J	.	.	.
=73	=73	=73	=73	=73
!	!	!LO:TX:b:t=m.d.	!	!
2.E 2.EE\	4.ryy	4rgg	4.b\	.
.	.	4rgg	.	.
!LO:TX:b:t=m.g.	!	!	!	!
.	8gg>\L	.	8g 8e 8B\	.
.	.	(>8qbb/	.	.
.	8ff#> 8b> 8g>\	4bbb/)	4ryy	.
.	8ee>\J	.	.	.
=74	=74	=74	=74	=74
!	!	!LO:TX:b:t=m.d.	!	!
2.E 2.EE\	4ryy	4rddd	8.dd#X/L	.
.	.	.	16aJk 16f# 16d#X/	.
!LO:TX:b:t=m.g.	!	!	!	!
.	4cc>\	4rgg	2ryy	.
.	.	(>8qbb/	.	.
.	8b> 8a> 8f#> 8d>\	4bbb/)	.	.
.	8r>	.	.	.
!!LO:LB:g=original
=75	=75	=75	=75	=75
!	!	!LO:TX:b:t=m.d.	!	!
2.E 2.EE\	4ryy	4rgg	8.e#X/L	.
.	.	.	16f#Jk 16d#X 16B 16A/	.
!	!LO:N:vis=4.	!	!	!
!LO:TX:b:t=m.g.	!	!	!	!
.	4b>\	4rgg	2ryy	.
.	.	(>8qbb/	.	.
.	8B> 8A>\	4bbb/)	.	.
.	8d>\	.	.	.
*v	*v	*	*	*
*	*v	*v	*
=76	=76	=76
4E 4EE/	4e/	.
2e 2B 2G\	8r	.
!	!LO:TX:a:i:t=con anima	!
.	8e^</L	.
.	8d#X^</	.
.	8e^</J	.
=77||	=77||	=77||
*^	*^	*
4r	2.FF# 2.FFF#\	4.f#/	4r	ff
2A#X 2F#^^>/	.	.	2e 2c#X^^>\	.
.	.	8f#/L	.	.
.	.	8g#X/	.	.
.	.	8a#X/J	.	.
!!LO:LB:g=original
=78	=78	=78	=78	=78
4rB	2.BB 2.BBB\	8.b/L	4r	<
.	.	16b/Jk	.	.
4B 4F#/	.	4cc#X/	4f# 4d#X\	.
4B 4F#/	.	4dd#X/	4f# 4d#\	[[
=79	=79	=79	=79	=79
4rB	2.FF# 2.FFF#\	4.ee/	4r	.
2c#X 2A#X 2F#^^>/	.	.	2f# 2e^^>\	.
.	.	8cc#X^</L	.	.
.	.	8g#X^</	.	.
.	.	8a#X^</J	.	.
=80	=80	=80	=80	=80
4rB	2.BB 2.BBB\	8.cc#X/L	4r	.
.	.	16b/Jk	.	.
4B 4F#/	.	(>4a#X/	4d#X\	.
4B 4E#X/	.	4g#X/)	4c##X\	.
!!LO:PB:g=original
=81	=81	=81	=81	=81
4rB	2.FF# 2.FFF#\	4.f#/	4r	.
2A#X 2F#^^>/	.	.	2e 2c#X^^>\	.
.	.	8f#/L	.	.
.	.	8g#X/	.	.
.	.	8a#X/J	.	.
=82	=82	=82	=82	=82
4rB	2.BB 2.BBB\	8.b/L	4r	<
.	.	16b/Jk	.	.
4B 4F#/	.	4cc#X/	4f# 4d#X\	.
4B 4F#/	.	4dd#X/	4f# 4d#\	[[
=83	=83	=83	=83	=83
4rB	2.FF# 2.FFF#\	4.ff#/	4r	.
2c#X 2A#X 2F#^^>/	.	.	2f# 2e^^>\	.
.	.	8ee/L	.	.
.	.	8cc#X/	.	.
.	.	8a#X/J	.	.
*	*	*v	*v	*
!!LO:LB:g=original
=84	=84	=84	=84
4rB	2.BB 2.BBB\	8b\L	.
.	.	8ddd#XJ 8dd#X^^>\	.
4f# 4d#X 4B 4F#\	.	8ccc#XL 8ff# 8dd# 8cc#X^>\	.
.	.	8bb 8b^>\	.
4e#X 4c##X 4B 4G#X 4E#X^^>\	.	8aa#X 8ee#X 8cc##X 8a#X^^>\	.
.	.	8gg#XJ 8g#X\	.
=85	=85	=85	=85
*	*	*^	*
4rB	2.FF# 2.FFF#\	4.ff# 4.f#/	4ryy	.
2e 2c#X 2A#X 2F#^^>/	.	.	2een 2cc#X 2a#X^^>\	fff
.	.	8ff#L 8f#/	.	.
.	.	8gg#X 8g#X/	.	.
.	.	8aa#XJ 8a#X/	.	.
*	*	*v	*v	*
=86	=86	=86	=86
4rB	2.BB 2.BBB\	8.bbL 8.b\	<
.	.	16bbJk 16b\	.
4f# 4d#X 4B 4F#/	.	4ccc#X 4cc#X\	.
4f# 4d# 4B 4F#/	.	4ddd#X 4dd#X\	[[
!!LO:LB:g=original
=87	=87	=87	=87
*	*	*^	*
4rB	2.FF# 2.FFF#\	4.eee 4.ee/	4r	.
2e 2c#X 2A#X 2F#^^>/	.	.	2ccc#X 2aa#X 2ff#^^>\	.
.	.	8ccc#XL 8cc#X^</	.	.
.	.	8gg#X 8g#X^</	.	.
.	.	8aa#XJ 8a#X^</	.	.
*	*	*v	*v	*
=88	=88	=88	=88
4rB	2.BB 2.BBB\	8.ccc#XL 8.cc#X\	.
.	.	16bbJk 16b\	.
4f# 4d#X 4B 4F#\	.	4aa#X 4ff# 4dd#X 4a#X\	.
4e#X 4c##X 4B 4G#X 4E#X^^>\	.	4gg#X 4ee#X 4cc##X 4b 4g#X^^\	.
=89	=89	=89	=89
*	*	*^	*
4rB	2.FF# 2.FFF#\	4.ff# 4.f#/	4ryy	.
2e 2c#X 2A#X 2F#^^>/	.	.	2een 2cc#X 2a#X^^>\	.
.	.	8ff#L 8f#/	.	.
.	.	8gg#X 8g#X/	.	.
.	.	8aa#XJ 8a#X/	.	.
*	*	*v	*v	*
!!LO:LB:g=original
=90	=90	=90	=90
4rB	2.BB 2.BBB\	8.bbL 8.b\	<
.	.	16bbJk 16b\	.
4f# 4d#X 4B 4F#/	.	4ccc#X 4cc#X\	.
4f# 4d# 4B 4F#/	.	4ddd#X 4dd#X\	[[
=91	=91	=91	=91
*	*	*^	*
4rB	2.FF# 2.FFF#\	4.fff# 4.ff#/	4r	.
2e 2c#X 2A#X 2F#^^>/	.	.	2eee 2ccc#X 2aa#X^^>\	.
.	.	8eeeL 8ee/	.	.
.	.	8ccc#X 8cc#X/	.	.
.	.	8aa#XJ 8a#X/	.	.
*v	*v	*	*	*
*	*v	*v	*
=92	=92	=92
2D#X 2FF# 2BBB/	8.bbL 8.ff# 8.dd#X 8.b\	.
.	16bbJk 16b\	.
.	4bb 4b\	.
4G 4BB 4EE^^>/	4bb 4gg 4ee 4b^^>\	.
!!LO:PB:g=original
=93	=93	=93
2D#X 2FF# 2BBB/	8.bbL 8.ff# 8.dd#X 8.b\	.
.	16bbJk 16b\	.
.	4bb 4b\	.
4G 4BB 4EE^^>/	4bb 4gg 4ee 4b^^>\	.
=94	=94	=94
8.D#XL 8.FF# 8.BBB/	8.bbL 8.ff# 8.dd#X 8.b\	.
16BBJk 16BBB/	16bbJk 16b\	.
!	!LO:TX:b:i:t=pesante	!
4BB 4BBB/	4bb 4b\	.
4BB 4BBB/	4bb 4b^^>\	.
=95	=95	=95
4BB 4BBB/	4bb 4b^^>\	.
4BB 4BBB/	4bb 4b^^>\	.
4BB 4BBB/	4bb 4b^^>\	.
!!LO:LB:g=original
=96	=96	=96
!	!LO:TX:b:i:t=con tutta la forza possibile	!
!	!LO:TX:a:i:t=con fuoco	!
(<8qCC#X/	.	.
*	*^	*
4GG 4DD 4GGG/)	(>16d/KL	4B 4G\	.
.	8.g/J)	.	.
.	(<8qg/	.	.
2A 2D 2GG^<\	(>8f#^^>/L)	2c\	.
.	8e/	.	.
.	8f#/	.	.
.	8d/J)	.	.
=97	=97	=97	=97
(<8qCC#X/	.	.	.
4GG 4DD 4GGG/)	(>16d/KL	4B 4G\	.
.	8.g/J)	.	.
.	(<8qg/	.	.
2A 2D 2GG^<\	(>8f#^^>/L)	2c\	.
.	8e/	.	.
.	8f#/	.	.
.	8d/J)	.	.
!!LO:LB:g=original
=98	=98	=98	=98
(<8qCC#X/	.	.	.
4GG 4DD 4GGG/)	8.d/L	4B 4G\	.
.	(>[<16g/Jk	.	.
2G 2D 2GG^<\	4b/)	2g] 2d\	.
.	(>8cc/L	.	.
.	8b/J)	.	.
=99	=99	=99	=99
(<8qCC#X/	.	.	.
4GG 4DD 4GGG/)	8.g#X/L	4f# 4d 4c\	.
.	[<16a/Jk	.	.
2A 2D 2GG^<\	4ee^^>/	2cc 2a] 2f#\	.
.	4dd/	.	.
=100	=100	=100	=100
(<8qCC#X/	.	.	.
4GG 4DD 4GGG/)	(>16d/KL	4B 4G\	.
.	8.g/J)	.	.
.	(<8qg/	.	.
2A 2D 2GG^<\	(>8f#^^>/L)	2c\	.
.	8e/	.	.
.	8f#/	.	.
.	8d/J)	.	.
!!LO:LB:g=original
=101	=101	=101	=101
(<8qCC#X/	.	.	.
4GG 4DD 4GGG/)	(>16d/KL	4B 4G\	.
.	8.g/J)	.	.
.	(<8qg/	.	.
2A 2D 2GG^<\	(>8f#^^>/L)	2c\	.
.	8e/	.	.
.	8f#/	.	.
.	8d/J)	.	.
=102	=102	=102	=102
(<8qCC#X/	.	.	.
4GG 4DD 4GGG/)	8.d/L	4B 4G\	.
.	(>[<16g/Jk	.	.
2G 2D 2GG^<\	4b/)	2g] 2d\	.
.	(>8cc/L	.	.
.	8b/J)	.	.
=103	=103	=103	=103
(<8qCC#X/	.	.	.
4GG 4DD 4GGG/)	(>8.b/L	4f# 4c\	.
.	16a/Jk)	.	.
!	!	!	!LO:DY:b=2
4G 4D 4GG\	4g/	4B\	sf
4r	4r	4ryy	.
!!LO:PB:g=original
=104	=104	=104	=104
(<8qCC#X/	.	.	.
4GG 4DD 4GGG/)	(>16d/KL	4B 4G\	.
!	!	!	!LO:DY:t=segue fff
.	8.g/J)	.	fff
.	(<8qg/	.	.
2A 2D 2GG^<\	(>8f#^^>/L)	2c\	.
.	8e/	.	.
.	8f#/	.	.
.	8d/J)	.	.
=105	=105	=105	=105
(<8qCC#X/	.	.	.
4GG 4DD 4GGG/)	(>16d/KL	4B 4G\	.
.	8.g/J)	.	.
.	(<8qg/	.	.
2A 2D 2GG^<\	(>8f#^^>/L)	2c\	.
.	8e/	.	.
.	8f#/	.	.
.	8d/J)	.	.
!!LO:LB:g=original
=106	=106	=106	=106
(<8qCC#X/	.	.	.
4GG 4DD 4GGG/)	8.d/L	4B 4G\	.
.	(>[<16g/Jk	.	.
2G 2D 2GG^<\	4b/)	2g] 2d\	.
.	(>8cc/L	.	.
.	8b/J)	.	.
=107	=107	=107	=107
(<8qCC#X/	.	.	.
4GG 4DD 4GGG/)	8.g#X/L	4f# 4d 4c\	.
.	[<16a/Jk	.	.
2A 2D 2GG^<\	4ee^^>/	2cc 2a] 2f#\	.
.	4dd/	.	.
=108	=108	=108	=108
(<8qCC#X/	.	.	.
4GG 4DD 4GGG/)	(>16d/KL	4B 4G\	.
.	8.g/J)	.	.
.	(<8qg/	.	.
2A 2D 2GG^<\	(>8f#^^>/L)	2c\	.
.	8e/	.	.
.	8f#/	.	.
.	8d/J)	.	.
!!LO:LB:g=original
=109	=109	=109	=109
(<8qCC#X/	.	.	.
4GG 4DD 4GGG/)	(>16d/KL	4B 4G\	.
.	8.g/J)	.	.
.	(<8qg/	.	.
2A 2D 2GG^<\	(>8f#^^>/L)	2c\	.
.	8e/	.	.
.	8f#/	.	.
.	8d/J)	.	.
=110	=110	=110	=110
(<8qCC#X/	.	.	.
4GG 4DD 4GGG/)	8.d/L	4B 4G\	.
.	(>[<16g/Jk	.	.
2G 2D 2GG^<\	4b/)	2g] 2d\	.
.	(>8cc/L	.	.
.	8b/J)	.	.
!!LO:LB:g=original
=111	=111	=111	=111
!!!LO: TX:a:t=1ma
*>B1	*>B1	*>B1	*
*	*	*	*^
(<8qCC#X/	.	.	.	.
4GG 4DD 4GGG/)	8.b/L	4f# 4c\	.	.
.	16a/Jk	.	.	.
!	!	!	!	!LO:DY:b=2
4GG 4DD 4GGG/	4g/	4B\	sf	sf
4r	4r	4ryy	.	.
!	!LO:TX:a:i:t=d'al Segno [segno]\nal Fine.	!	!	!
!LO:TX:b:t=[segno]	!LO:TX:a:t=[segno]	!	!	!
*	*	*	*v	*v
=112||	=112||	=112||	=112||
!!!LO: TX:a:t=pour finir
*>B2	*>B2	*>B2	*
(<8qCC#X/	.	.	.
2GG 2DD 2GGG/)	(>8b/L	4f# 4c\	.
.	8a/J)	.	.
.	4g/	4B\	.
8GG 8DD 8BBB 8GGG/	8gg 8dd 8b 8g\	4ryy	ff
8r	8r	.	.
*	*v	*v	*
==	==	==
*-	*-	*-
!!!system-decoration: {(s1,s2)}
!!!RDF**kern: > = above
!!!RDF**kern: < = below
!!!ENC: Filip Voros
!!!END: 2022-02-26
!!!EED: Antoni Szymański
!!!EEV: 2022-03-01
!!!YEC: Copyright 2022 Narodowy Instytut Fryderyka Chopina (https://polishscores.org)
!!!YEM: License CC-BY-4.0 (https://creativecommons.org/licenses/by/4.0)
